usr/share/icons/biglinux-icons-material/scalable/mimetypes/application-x-sharedlib.svg

<svg width="24" height="24" viewBox="0 0 24 24" fill="none" xmlns="http://www.w3.org/2000/svg">
<rect x="1" y="1" width="22" height="22" rx="6.6" fill="url(#paint0_radial_3_1187)"/>
<path d="M14.8712 5L14.8057 5.7822C14.5577 5.87406 14.3271 6.00743 14.1238 6.1766L13.4128 5.84182L12.6704 7.12786L13.3159 7.57607C13.2929 7.70603 13.281 7.8377 13.2803 7.96967C13.2803 8.10214 13.2917 8.23435 13.3142 8.36488L12.6704 8.81149L13.4128 10.0975L14.1221 9.76363C14.3261 9.93207 14.5572 10.0646 14.8057 10.1555L14.8712 10.9394H16.3559L16.4214 10.1571C16.6694 10.0653 16.9 9.93192 17.1034 9.76275L17.8143 10.0975L18.5567 8.81151L17.9112 8.36329C17.9342 8.23334 17.9461 8.10166 17.9469 7.96969C17.9468 7.83722 17.9354 7.70501 17.9129 7.57447L18.5567 7.12786L17.8143 5.84182L17.105 6.17572C16.901 6.00729 16.6698 5.87476 16.4214 5.78382L16.3559 5H14.8712ZM15.6136 6.97979C15.8761 6.97979 16.1279 7.08408 16.3135 7.26972C16.4992 7.45536 16.6035 7.70714 16.6035 7.96967C16.6035 8.23221 16.4992 8.48399 16.3135 8.66963C16.1279 8.85527 15.8761 8.95956 15.6136 8.95956C15.3511 8.95956 15.0993 8.85527 14.9136 8.66963C14.728 8.48399 14.6237 8.23221 14.6237 7.96967C14.6237 7.70714 14.728 7.45536 14.9136 7.26972C15.0993 7.08408 15.3511 6.97979 15.6136 6.97979Z" fill="#555555"/>
<path d="M9.14392 10.5151L9.05047 11.6325C8.69613 11.7638 8.36667 11.9543 8.07619 12.196L7.06059 11.7177L6 13.5549L6.92215 14.1953C6.88929 14.3809 6.87223 14.569 6.87117 14.7576C6.8713 14.9468 6.88755 15.1357 6.91973 15.3221L6 15.9601L7.0606 17.7974L8.07389 17.3204C8.36528 17.561 8.69548 17.7503 9.05035 17.8803L9.14392 19H11.265L11.3584 17.8826C11.7128 17.7513 12.0422 17.5608 12.3327 17.3191L13.3483 17.7974L14.4089 15.9602L13.4867 15.3198C13.5196 15.1342 13.5367 14.9461 13.5377 14.7576C13.5376 14.5683 13.5214 14.3794 13.4892 14.193L14.4089 13.5549L13.3483 11.7177L12.335 12.1947C12.0436 11.9541 11.7134 11.7648 11.3586 11.6349L11.265 10.5151H9.14392ZM10.2045 13.3433C10.3902 13.3433 10.5741 13.3799 10.7457 13.4509C10.9172 13.522 11.0731 13.6262 11.2045 13.7575C11.3358 13.8888 11.4399 14.0447 11.511 14.2163C11.5821 14.3878 11.6186 14.5717 11.6186 14.7574C11.6186 14.9431 11.5821 15.127 11.511 15.2986C11.4399 15.4701 11.3358 15.626 11.2045 15.7574C11.0731 15.8887 10.9172 15.9928 10.7457 16.0639C10.5741 16.135 10.3902 16.1715 10.2045 16.1715C9.82947 16.1715 9.46978 16.0226 9.20458 15.7574C8.93938 15.4922 8.79039 15.1325 8.79039 14.7574C8.79039 14.5717 8.82697 14.3878 8.89804 14.2163C8.9691 14.0447 9.07327 13.8888 9.20458 13.7575C9.33589 13.6262 9.49178 13.522 9.66335 13.4509C9.83492 13.3799 10.0188 13.3433 10.2045 13.3433Z" fill="#555555"/>
<defs>
<radialGradient id="paint0_radial_3_1187" cx="0" cy="0" r="1" gradientUnits="userSpaceOnUse" gradientTransform="translate(17.5 1) rotate(116.565) scale(24.5967)">
<stop stop-color="#F4F4F4"/>
<stop offset="1" stop-color="#BBBBBB"/>
</radialGradient>
</defs>
</svg>

<svg xmlns="http://www.w3.org/2000/svg" width="24" height="24" fill="none"><rect width="22" height="22" x="1" y="1" fill="url(#a)" rx="6.6"/><path fill="#555" d="m14.871 5-.065.782a2.333 2.333 0 0 0-.682.395l-.711-.335-.743 1.286.646.448a2.33 2.33 0 0 0-.002.789l-.644.446.743 1.287.71-.334c.203.168.434.3.683.392l.065.783h1.485l.065-.782c.248-.092.479-.225.682-.394l.711.335.743-1.286-.646-.449a2.34 2.34 0 0 0 .036-.393c0-.133-.012-.265-.034-.396l.644-.446-.743-1.286-.709.334a2.334 2.334 0 0 0-.684-.392L16.356 5H14.87Zm.743 1.98a.99.99 0 1 1 0 1.98.99.99 0 0 1 0-1.98ZM9.144 10.515l-.094 1.117a3.335 3.335 0 0 0-.974.564l-1.015-.478L6 13.555l.922.64a3.332 3.332 0 0 0-.002 1.127L6 15.96l1.06 1.837 1.014-.477c.291.241.621.43.976.56L9.144 19h2.121l.093-1.117c.355-.132.684-.322.975-.564l1.015.478 1.06-1.837-.921-.64a3.327 3.327 0 0 0 .002-1.127l.92-.638-1.06-1.837-1.014.477a3.334 3.334 0 0 0-.976-.56l-.094-1.12H9.144Zm1.06 2.828a1.416 1.416 0 0 1 1 2.414 1.417 1.417 0 0 1-2 0 1.414 1.414 0 0 1 1-2.414Z"/><defs><radialGradient id="a" cx="0" cy="0" r="1" gradientTransform="rotate(116.565 8.441 5.908) scale(24.5967)" gradientUnits="userSpaceOnUse"><stop stop-color="#F4F4F4"/><stop offset="1" stop-color="#BBB"/></radialGradient></defs></svg>
